X: 215
T:Pretty Polly Ann - AEAE Tuning
M:4/4
L:1/8
F:http://blackrosetheband.googlepages.com/ABCTUNES.ABC May 2009
S:Source - Brad Leftwich, Rounder Fiddle
K:A
AB|c2 cc BcAB|c2 c2 E3 E|c2 cA BcAF|EEFE A2 AB|
c2 cc BcAB|c2 c2 E3 E|c2 cA BcAF|EEFE Az [A,2E2]||
|:[A,E] EFE A2 Ac|BAFG Az [A,2E2]|[A,E] EFE A2 Ac|BAFG Ez [A,2E2]|
[A,E] EFE A2 Ac|BAAB c2 Bc|cz e2 ecAB|1 cABG A2 [A,2E2]:|2 cABG A2 A2||
e3e e2fe|ceef e3 e|c2 ee e2 fe|cAFA E2 A2|
e3e e2fe|ceef e3 e|c2 ee e2 fe|cAFA E2 AB||

